X:1
T:Title
%%score { ( 1 3 ) | 2 }
L:1/8
M:4/4
K:F
V:1 treble nm="Grand Piano"
V:3 treble 
V:2 bass 
V:1
 z4 z2[Q:1/4=100] c2 | B2 A2 G2 B2 | [CEA]2 [B,EG]2 [A,F]2 [=B,FA]2 | %3
 [CEG]2 [CEc]2 [A,CD]2 [_A,CF]2 |[M:7/8][K:bass] [G,CE]2 [F,=B,D]2 [E,C]3 | %5
[M:1/4][K:treble] [Ec]2 |[M:4/4] [Fc]2 [Gc]2 c2 c2 |[M:9/8] f2 e- e d2- d f2 | %8
[M:4/4] e2 d2 c2 [DEB]2 |[M:7/8] [CEA]2 [B,EG]2 [A,F]3 |[M:1/4] F2 | %11
[M:4/4] F2 F2 [_A,^CF]3 [A,CF] |[M:9/8] [_A,CF]2 [A,CF]- [A,CF] [A,=B,F]2- [A,B,F] [A,B,F]2 | %13
[M:4/4] [A,CF]2 [DFB]2 [CFA]2 [Fd]2 | c4 c4 |[M:3/4] [A,Fc]6 |] %16
V:2
 z4 z2 [F,A,F]2 | [F,DF]2 [F,CF]2 [F,B,F]2 [F,^CF]2 | C,2 C,2 D,2 D,2 | E,2 A,,2 F,2 D,2 | %4
[M:7/8] G,,2 G,,2 C,3 |[M:1/4] [C,G,]2 |[M:4/4] [C,A,]2 [E,B,]2[K:treble] [F,A,F]2 [G,B,E]2 | %7
[M:9/8] [A,CF]2 [A,^CG]- [A,CG] [B,DF]2- [B,DF] [=B,D_A]2 | %8
[M:4/4] [B,E_A]2 [B,FA]2 [CF=A]2[K:bass] C,2 |[M:7/8] C,2 C,2 F,3 |[M:1/4] F,2 | %11
[M:4/4] F,2 F,2 ^C,3 C, |[M:9/8] F,,2 _A,,- A,, ^C,2- C, C,2 |[M:4/4] C,2 C,2 C,2 [C,=B,]2 | %14
 [C,B,]2 C,2 C,2 C,2 |[M:3/4] F,,6 |] %16
V:3
 x8 | x8 | x8 | x8 |[M:7/8][K:bass] x7 |[M:1/4][K:treble] x2 |[M:4/4] x8 |[M:9/8] x9 |[M:4/4] x8 | %9
[M:7/8] x7 |[M:1/4] x2 |[M:4/4] x8 |[M:9/8] x9 |[M:4/4] x8 | E2 [DEB]2 [CEA]2 [B,EG]2 | %15
[M:3/4] x6 |] %16

